X: 27171
T: Miss Menzie Of Menzie's
R: reel
M: 4/4
K: Cdorian
g|fB B/B/Bd2cB|GBFD ECCg|fB B/B/Bd2cB|GBFE DB,B,g|
fB B/B/Bd2cB|GBFD ECCg|FDFD GEGB|ABcF dBBg|
fdBd F2BF|fBdB eccg|fdBd F2BF|fBdB GBBg|
fdBd F2BF|fBdB eccg|GEGE FAFA|BfAc dBB||

